src/topics/icons/jamstack.svg

<svg height="85" preserveAspectRatio="xMidYMid" viewBox="0 0 512 85" width="512" xmlns="http://www.w3.org/2000/svg" xmlns:xlink="http://www.w3.org/1999/xlink"><linearGradient id="a" x1="49.845597%" x2="50.156779%" y1="0%" y2="100%"><stop offset="0" stop-color="#20c6b7"/><stop offset="1" stop-color="#4d9abf"/></linearGradient><path d="m32.8085622 1.94042455h16.2737011v56.70070985c0 7.9934208-2.3097306 14.3339011-6.9292614 19.0216315-4.6195308 4.6877302-10.4369852 7.0315603-17.4525381 7.0315603-7.5905981 0-13.5997315-2.0917047-18.02758047-6.2751774-4.42784894-4.1834724-6.56506863-10.3465314-6.41172322-18.4893618l.17251274-.3361702h15.92867555c0 4.2955297.7762996 7.433087 2.3289219 9.4127659 1.5526224 1.9796791 3.5556668 2.9695036 6.0091935 2.9695036 2.2235087 0 4.1307137-1.176584 5.7216724-3.5297872s2.386426-5.6214922 2.386426-9.8049647zm61.5404597 64.26453985h-22.0816296l-4.4853311 17.312766h-16.5037179l23.5767399-81.57730585h17.0212563l23.5192355 81.57730585h-16.5037177zm-18.7463836-12.8304966h15.4111375l-7.533056-28.8546104h-.3450255zm63.4956047-51.43404325 15.008607 59.89432695h.345026l15.18112-59.89432695h21.334075v81.57730585h-16.273702v-23.7000001l1.380102-31.7120573-.345025-.0560283-15.98618 55.4680857h-10.868302l-15.813667-55.0198588-.345026.0560283 1.437606 31.2638304v23.7000001h-16.273701v-81.57730585zm115.939473 62.02340495c0-5.1172832-1.926372-9.2073134-5.779176-12.2702128-3.852803-3.0628995-10.532813-5.8642901-20.040228-8.4042554-9.545753-2.5026131-16.532449-5.3506934-20.960297-8.5443265-4.427849-3.1936329-6.641741-7.8532791-6.641741-13.9790781 0-6.0884466 2.606833-10.94419007 7.820577-14.56737607 5.213745-3.62318602 11.865002-5.43475184 19.953973-5.43475184 8.165644 0 14.836069 2.22243643 20.011477 6.66737595 5.175408 4.44493956 7.686402 10.15977606 7.533055 17.14468106l-.115007.3361702h-2.645195c0-6.0884466-2.300147-11.1309494-6.90051-15.12765973-4.600362-3.99671035-10.561576-5.99503553-17.88382-5.99503553-7.590598 0-13.599731 1.65282038-18.02758 4.95851071-4.427849 3.30569035-6.641741 7.27432675-6.641741 11.90602845s1.830534 8.4789448 5.491656 11.5418442c3.661122 3.0628995 10.283628 5.7895861 19.867716 8.180142 9.277398 2.3905556 16.283262 5.3133397 21.017802 8.7684397 4.734539 3.4551002 7.101774 8.3575333 7.101774 14.7074469 0 6.4619711-2.702673 11.5511638-8.108099 15.2677309s-12.171691 5.5748226-20.298998 5.5748226c-8.395662 0-15.621956-1.9142834-21.6791-5.7429077-6.057144-3.8286246-8.989831-9.8516139-8.798149-18.0691494l.115008-.3361702h2.587691c0 7.3957818 2.798512 12.7651135 8.39562 16.1081563 5.597107 3.3430427 12.056686 5.014539 19.37893 5.014539 7.36058 0 13.408049-1.6434823 18.142589-4.9304965 4.734539-3.2870141 7.101773-7.5451276 7.101773-12.7744682zm63.216161-50.647473c0 .4081496-.157086.7822811-.471261 1.1224057s-.680709.5101844-1.099611.5101844h-24.296126v67.0382306c0 .4081495-.17454.7652751-.523626 1.0713873-.349083.3061123-.733068.4591659-1.15197.4591659-.418901 0-.802888-.1360477-1.151972-.4081473-.349084-.2720999-.523623-.6462314-.523623-1.1224059v-67.0382306h-24.400853c-.418902 0-.785433-.1700598-1.099611-.5101844-.314174-.3401246-.47126-.7142561-.47126-1.1224057s.139633-.799287.418898-1.1734241c.279269-.3741371.663256-.5612029 1.151973-.5612029h52.04817c.48872 0 .872707.1870658 1.151973.5612029.279268.3741371.418899.7652745.418899 1.1734241zm47.527896 45.8290332h-40.943022l-9.315689 24.3723407h-3.39275l31.282309-81.57730585h3.79528l31.339814 81.57730585h-3.392751zm-39.792937-3.0255318h38.642852l-17.538794-45.9432631-1.610119-4.59432624h-.345026l-1.552615 4.59432624zm113.822735 2.4092198.11501.3361702c.153344 8.3669451-2.443904 14.7634532-7.791827 19.1897166-5.34792 4.4262633-12.392119 6.6393617-21.132808 6.6393617-9.16239 0-16.503692-3.2963027-22.024126-9.8890072-5.520435-6.5927045-8.280612-15.2490009-8.280612-25.9691492v-12.2141847c0-10.6827956 2.760177-19.3297543 8.280612-25.9411349 5.520434-6.61138066 12.861736-9.91702141 22.024126-9.91702141 8.740689 0 15.784888 2.22243643 21.132808 6.66737595 5.347923 4.44493956 7.945171 10.79475796 7.791827 19.04964556l-.11501.3361702h-2.645195c0-7.3584292-2.348067-13.0359139-7.044269-17.03262423-4.696205-3.99671035-11.069528-5.99503553-19.120161-5.99503553-8.165644 0-14.740231 3.00682576-19.723956 9.02056746-4.983726 6.0137418-7.475552 13.9136628-7.475552 23.7000002v12.3262414c0 9.8983948 2.491826 17.8450058 7.475552 23.8400713 4.983725 5.9950654 11.558312 8.9925531 19.723956 8.9925531 8.050633 0 14.423956-1.9236214 19.120161-5.7709219 4.696202-3.8473008 7.044269-9.6368409 7.044269-17.3687946zm28.888968-14.8475179h-12.823447v39.8361706h-3.105229v-81.57730585h3.105229v38.77163165h13.686011l35.537622-38.77163165h3.680273l.115007.28014184-36.745211 40.39645431 39.390406 40.5645395-.172511.3361702h-3.622769z" fill="#4a4a4a"/><path d="m317.730254 3.41877906c0 .40814955-.157086.76527508-.471261 1.07138725-.314177.30611218-.680709.45916597-1.09961.45916597h-51.524548c-.418902 0-.785433-.15305379-1.099611-.45916597-.314174-.30611217-.47126-.6632377-.47126-1.07138725 0-.40814956.157086-.76527509.47126-1.07138725.314178-.30611218.680709-.45916597 1.099611-.45916597h51.524548c.418901 0 .785433.15305379 1.09961.45916597.314175.30611216.471261.66323769.471261 1.07138725z" fill="url(#a)"/></svg>

<?xml version="1.0" encoding="UTF-8"?>
<svg width="512px" height="85px" viewBox="0 0 512 85" version="1.1" xmlns="http://www.w3.org/2000/svg" xmlns:xlink="http://www.w3.org/1999/xlink" preserveAspectRatio="xMidYMid">
    <defs>
        <linearGradient x1="49.8455971%" y1="0%" x2="50.1567789%" y2="100%" id="linearGradient-1">
            <stop stop-color="#20C6B7" offset="0%"></stop>
            <stop stop-color="#4D9ABF" offset="100%"></stop>
        </linearGradient>
    </defs>
		<g>
				<path d="M32.8085622,1.94042455 L49.0822633,1.94042455 L49.0822633,58.6411344 C49.0822633,66.6345552 46.7725327,72.9750355 42.1530019,77.6627659 C37.5334711,82.3504961 31.7160167,84.6943262 24.7004638,84.6943262 C17.1098657,84.6943262 11.1007323,82.6026215 6.67288333,78.4191488 C2.24503439,74.2356764 0.107814695,68.0726174 0.261160112,59.929787 L0.433672845,59.5936168 L16.3623484,59.5936168 C16.3623484,63.8891465 17.138648,67.0267038 18.6912703,69.0063827 C20.2438927,70.9860618 22.2469371,71.9758863 24.7004638,71.9758863 C26.9239725,71.9758863 28.8311775,70.7993023 30.4221362,68.4460991 C32.0130949,66.0928959 32.8085622,62.8246069 32.8085622,58.6411344 L32.8085622,1.94042455 Z M94.3490219,66.2049644 L72.2673923,66.2049644 L67.7820612,83.5177304 L51.2783433,83.5177304 L74.8550832,1.94042455 L91.8763395,1.94042455 L115.395575,83.5177304 L98.8918573,83.5177304 L94.3490219,66.2049644 Z M75.6026383,53.3744678 L91.0137758,53.3744678 L83.4807198,24.5198574 L83.1356943,24.5198574 L75.6026383,53.3744678 Z M139.098243,1.94042455 L154.10685,61.8347515 L154.451876,61.8347515 L169.632996,1.94042455 L190.967071,1.94042455 L190.967071,83.5177304 L174.693369,83.5177304 L174.693369,59.8177303 L176.073471,28.105673 L175.728446,28.0496447 L159.742266,83.5177304 L148.873964,83.5177304 L133.060297,28.4978716 L132.715271,28.5538999 L134.152877,59.8177303 L134.152877,83.5177304 L117.879176,83.5177304 L117.879176,1.94042455 L139.098243,1.94042455 Z M255.037716,63.9638295 C255.037716,58.8465463 253.111344,54.7565161 249.25854,51.6936167 C245.405737,48.6307172 238.725727,45.8293266 229.218312,43.2893613 C219.672559,40.7867482 212.685863,37.9386679 208.258015,34.7450348 C203.830166,31.5514019 201.616274,26.8917557 201.616274,20.7659567 C201.616274,14.6775101 204.223107,9.82176663 209.436851,6.19858063 C214.650596,2.57539461 221.301853,0.763828789 229.390824,0.763828789 C237.556468,0.763828789 244.226893,2.98626522 249.402301,7.43120474 C254.577709,11.8761443 257.088703,17.5909808 256.935356,24.5758858 L256.820349,24.912056 L254.175154,24.912056 C254.175154,18.8236094 251.875007,13.7811066 247.274644,9.78439627 C242.674282,5.78768592 236.713068,3.78936074 229.390824,3.78936074 C221.800226,3.78936074 215.791093,5.44218112 211.363244,8.74787145 C206.935395,12.0535618 204.721503,16.0221982 204.721503,20.6538999 C204.721503,25.2856016 206.552037,29.1328447 210.213159,32.1957441 C213.874281,35.2586436 220.496787,37.9853302 230.080875,40.3758861 C239.358273,42.7664417 246.364137,45.6892258 251.098677,49.1443258 C255.833216,52.599426 258.200451,57.5018591 258.200451,63.8517727 C258.200451,70.3137438 255.497778,75.4029365 250.092352,79.1195036 C244.686926,82.8360707 237.920661,84.6943262 229.793354,84.6943262 C221.397692,84.6943262 214.171398,82.7800428 208.114254,78.9514185 C202.05711,75.1227939 199.124423,69.0998046 199.316105,60.8822691 L199.431113,60.5460989 L202.018804,60.5460989 C202.018804,67.9418807 204.817316,73.3112124 210.414424,76.6542552 C216.011531,79.9972979 222.47111,81.6687942 229.793354,81.6687942 C237.153934,81.6687942 243.201403,80.0253119 247.935943,76.7382977 C252.670482,73.4512836 255.037716,69.1931701 255.037716,63.9638295 L255.037716,63.9638295 Z M318.253877,13.3163565 C318.253877,13.7245061 318.096791,14.0986376 317.782616,14.4387622 C317.468441,14.7788868 317.101907,14.9489466 316.683005,14.9489466 L292.386879,14.9489466 L292.386879,81.9871772 C292.386879,82.3953267 292.212339,82.7524523 291.863253,83.0585645 C291.51417,83.3646768 291.130185,83.5177304 290.711283,83.5177304 C290.292382,83.5177304 289.908395,83.3816827 289.559311,83.1095831 C289.210227,82.8374832 289.035688,82.4633517 289.035688,81.9871772 L289.035688,14.9489466 L264.634835,14.9489466 C264.215933,14.9489466 263.849402,14.7788868 263.535224,14.4387622 C263.22105,14.0986376 263.063964,13.7245061 263.063964,13.3163565 C263.063964,12.9082069 263.203597,12.5170695 263.482862,12.1429324 C263.762131,11.7687953 264.146118,11.5817295 264.634835,11.5817295 L316.683005,11.5817295 C317.171725,11.5817295 317.555712,11.7687953 317.834978,12.1429324 C318.114246,12.5170695 318.253877,12.9082069 318.253877,13.3163565 L318.253877,13.3163565 Z M365.781773,59.1453897 L324.838751,59.1453897 L315.523062,83.5177304 L312.130312,83.5177304 L343.412621,1.94042455 L347.207901,1.94042455 L378.547715,83.5177304 L375.154964,83.5177304 L365.781773,59.1453897 Z M325.988836,56.1198579 L364.631688,56.1198579 L347.092894,10.1765948 L345.482775,5.58226856 L345.137749,5.58226856 L343.585134,10.1765948 L325.988836,56.1198579 Z M439.811571,58.5290777 L439.926581,58.8652479 C440.079925,67.232193 437.482677,73.6287011 432.134754,78.0549645 C426.786834,82.4812278 419.742635,84.6943262 411.001946,84.6943262 C401.839556,84.6943262 394.498254,81.3980235 388.97782,74.805319 C383.457385,68.2126145 380.697208,59.5563181 380.697208,48.8361698 L380.697208,36.6219851 C380.697208,25.9391895 383.457385,17.2922308 388.97782,10.6808502 C394.498254,4.06946954 401.839556,0.763828789 411.001946,0.763828789 C419.742635,0.763828789 426.786834,2.98626522 432.134754,7.43120474 C437.482677,11.8761443 440.079925,18.2259627 439.926581,26.4808503 L439.811571,26.8170205 L437.166376,26.8170205 C437.166376,19.4585913 434.818309,13.7811066 430.122107,9.78439627 C425.425902,5.78768592 419.052579,3.78936074 411.001946,3.78936074 C402.836302,3.78936074 396.261715,6.7961865 391.27799,12.8099282 C386.294264,18.82367 383.802438,26.723591 383.802438,36.5099284 L383.802438,48.8361698 C383.802438,58.7345646 386.294264,66.6811756 391.27799,72.6762411 C396.261715,78.6713065 402.836302,81.6687942 411.001946,81.6687942 C419.052579,81.6687942 425.425902,79.7451728 430.122107,75.8978723 C434.818309,72.0505715 437.166376,66.2610314 437.166376,58.5290777 L439.811571,58.5290777 Z M468.700539,43.6815598 L455.877092,43.6815598 L455.877092,83.5177304 L452.771863,83.5177304 L452.771863,1.94042455 L455.877092,1.94042455 L455.877092,40.7120562 L469.563103,40.7120562 L505.100725,1.94042455 L508.780998,1.94042455 L508.896005,2.22056639 L472.150794,42.6170207 L511.5412,83.1815602 L511.368689,83.5177304 L507.74592,83.5177304 L468.700539,43.6815598 Z" fill="#4A4A4A"></path>
				<path d="M317.730254,3.41877906 C317.730254,3.82692861 317.573168,4.18405414 317.258993,4.49016631 C316.944816,4.79627849 316.578284,4.94933228 316.159383,4.94933228 L264.634835,4.94933228 C264.215933,4.94933228 263.849402,4.79627849 263.535224,4.49016631 C263.22105,4.18405414 263.063964,3.82692861 263.063964,3.41877906 C263.063964,3.0106295 263.22105,2.65350397 263.535224,2.34739181 C263.849402,2.04127963 264.215933,1.88822584 264.634835,1.88822584 L316.159383,1.88822584 C316.578284,1.88822584 316.944816,2.04127963 317.258993,2.34739181 C317.573168,2.65350397 317.730254,3.0106295 317.730254,3.41877906 L317.730254,3.41877906 Z" fill="url(#linearGradient-1)"></path>
		</g>
</svg>
